X: 1
T: Troskari Valsen - vals efter Troskari Mats
S: Kalle Alml\"of, "Du Spelm\"an", Folkmusik hemma hos.
Z: John Chambers <jc:trillian.mit.edu>
M: 3/4
K: G
L: 1/8
Bdg |\
"G"b2 ba gf | "C"a2 af ge | "G"~e2 d2 ~B2 | G3 BeB |\
"Am"d2 c2 A2 | "D7"F3 Ace | d2 dc BA | "G"G3 Bdg |
"G"b2 ba gf | "C"a2 af ge | "G"~e2 d2 ~B2 | G3 BeB |\
"Am"d2 c2 A2 | "D7"F2 DF AF | "G"G3 G G2 | G3 :|
|: D2 |\
"G"[D2B] BG Bd | B2 BA GF | "Am"Ec cB ce | c4 e2 |\
"D7"[F2d] fd eg | f2 df af | "G"[B2g] e2 dc | BA G2 D2 |
"G"[D2B] BG Bd | B2 BA GF | "Am"Ec cB ce | c4 e2 |\
"D7"[F2d] fd eg | f2 df af | "G"[B3g] g g2 | [B3g] :|
